X:266
T: Lachen und Weinen (30), S. 114
N: T0155
O: Luxemburg
S: Singendes Volk, Esch-Alzette 1937 posth.]
N: Heffingen, fff Ewen, 10.3.1933
R: Liebeslieder]
M: 6/8
L: 1/16
K: F
C2 | F2F2F2F2A2A2 | c2c2c2A2G2F2 | G6c4B2 | A4z6
C2 | B2A2G2G2A2B2 | d2c2B2A2G2F2 | G6c4B2 | A4z6
CC | B2A2G2G2A2B2 | d2c2c2A2A2
c2 | c4A2A2G2A2 | d2c2B2A4
c2 | A2c2c2c2c2c2 | c4F2d4
d2 | c2d2c2c2B2G2 | A8z2
c2 | A2c2c2c2c2c2 | c4F2d4
d2 | c2d2c2c2B2G2 | F8z2

@@@ Tune index: 8320
